X: 18000
T: Hughie Travers'
R: reel
M: 4/4
K: Gmajor
|:dBBA B2GB|dBGB AGED|G2 (3Bcd g3a|gedB A2 d2|
dBBA B2GB|dBGB AGED|G2 (3Bcd g3a|gedB G2:|
|:Bdd2 edd2|edgd edBA|Bdef g3a|gedB A2GA|
Bdd2 edd2|edgd edBA|Bdef g3a|gedB G2 GA|
bg g2 ag g2|edgd edBA|Bdef g3a|gedB A2 d2|
dBBA B2GB|dBGB AGED|GABd g3a|gedB G2||

